!!!ONB: MCCC : ICA0059_04 : Extracted Monophonic Melody
!!!COM: Alkan, Charles-Valentin
!!!OPR: Recueil d'Impromptus
!!!OMV: 4
!!!SCT: Op.32
!!!ODT: 1849///
**kern
*staff1
*IPiano
=1
*clefG2
*k[]
*C:
*M7/4
4cc
4b
4cc
4b
2.a
=2
4cc
4b
4cc
4b
2.a
=3
4cc
4dd
4ee
4ee
2.ff
=4
4ee
4dd
4cc
4cc
2.b
=5
4cc
4b
4cc
4b
2.a
=6
4cc
4b
4cc
4b
2.a
=7
4cc
4dd
4ee-
4ee-
2.gg
=8
4ee-
4b-
4a-
4a-
2.g
=9
4g
4a-
4g
4g
2.dd
=10
4ee-
4dd
4cc
4cc
2.dd
=11
4g
4a-
4g
4g
2.dd
=12
4ff
4dd
4cc
4cc
2.b
=13
4cc
4b
4cc
4b
2.a
=14
4cc
4b
4cc
4b
2.a
=15
4cc
4dd
4ee
4ee
2.ff
=16
4ee
4dd
4cc
4cc
2.b
=17
4cc
4b
4cc
4b
2.a
=18
4cc
4b
4cc
4b
2.a
=19
4a
4b
4cc
4cc
2.aa
=20
4e
4cc
4b
4b
2.a
=21
4g
4a-
4g
4g
2.dd
=22
4ee-
4dd
4cc
4cc
2.dd
=23
4g
4a-
4g
4g
2.dd
=24
4ff
4dd
4cc
4cc
2.b
=25
4ee-
4dd
4ee-
4dd
2.cc
=26
4ee-
4dd
4ee-
4dd
2.cc
=27
4ee-
4ff
4gg
4gg
2.aa-
=28
4gg
4ff
4ee-
4ee-
2.dd
=29
4cc
4b
4cc
4b
2.a
=30
4cc
4b
4cc
4b
2.a
=31
4a
4b
4cc
4cc
2.aa
=32
4e
4cc
4b
4b
2.a
=33
*k[f#c#g#]
*A:
4cc#
4dd
4ee
4ee
2.ff#
=34
4b
4cc#
4dd
4dd
2.ee
=35
4e
4f#
4g#
4a
4cc#
4b
4dd
=36
4cc#
4ee
4dd
4cc#
2.b
=37
4cc#
4dd
4ee
4ee
2.ff#
=38
4dd#
4ee
4ff#
4ff#
2.gg#
=39
4gg#
4ff#
4aa
4gg#
4ccc#
4bb
4aa
=40
4gg#
4aa
4dd#
4ff#
2.ee
=41
4cc#
4dd
4ee
4ee
2.ff#
=42
4b
4cc#
4dd
4dd
2.ee
=43
4e
4f#
4g#
4a
4cc#
4b
4dd
=44
4cc#
4ee
4dd
4cc#
2.b
=45
4cc#
4dd
4ee
4ee
2.ff#
=46
4dd#
4ee
4ff#
4ff#
2.gg#
=47
4gg#
4ff#
4aa
4gg#
4ccc#
4bb
4aa
=48
4gg#
4aa
4dd#
4ff#
2.ee
=49
4ee
4ff#
4gg#
4gg#
2.aa
=50
4dd#
4ee
4ff#
4ff#
2.gg#
=51
4g#
4a#
4b#
4cc#
4ee
4dd#
4ff#
=52
4ee
4gg#
4ff#
4ee
2.dd#
=53
4gg#
4ff#
4ee
4dd#
2.cc#
=54
4aa
4gg#
4ff#
4ee
2.dd#
=55
4g#
4a
4b
4cc#
4a
4dd
4b
=56
4ee
4a
4b
4b
2.a
=57
4ee
4ff#
4gg#
4gg#
2.aa
=58
4dd#
4ee
4ff#
4ff#
2.gg#
=59
4g#
4a#
4b#
4cc#
4ee
4dd#
4ff#
=60
4ee
4gg#
4ff#
4ee
2.dd#
=61
4gg#
4ff#
4ee
4dd#
2.cc#
=62
4aa
4gg#
4ff#
4ee
2.dd#
=63
4g#
4a
4b
4cc#
4a
4dd
4b
=64
4ee
4a
4b
4b
2.a
=65
*k[]
*C:
4cc
4b
4cc
4b
2.a
=66
4cc
4b
4cc
4b
2.a
=67
4cc
4dd
4ee
4ee
2.ff
=68
4ee
4dd
4cc
4cc
2.b
=69
4cc
4b
4cc
4b
2.a
=70
4cc
4b
4cc
4b
2.a
=71
4cc
4dd
4ee-
4ee-
2.gg
=72
4ee-
4b-
4a-
4a-
2.g
=73
4g
4a-
4g
4g
2.dd
=74
4ee-
4dd
4cc
4cc
2.dd
=75
4g
4a-
4g
4g
2.dd
=76
4ff
4dd
4cc
4cc
2.b
=77
4ee-
4dd
4ee-
4dd
2.cc
=78
4ee-
4dd
4ee-
4dd
2.cc
=79
4ee-
4ff
4gg
4gg
2.aa-
=80
4gg
4ff
4ee-
4ee-
2.dd
=81
4ee-
4dd
4ee-
4dd
2.cc
=82
4ee-
4dd
4ee-
4dd
2.cc
=83
4cc
4dd
4dd#
4dd#
2.aa
=84
4e
4cc
4b
4b
2.a
=85
4e
1.ee
4b
=86
4e
1.ee
4b
=87
4e
1.ee
4b
=88
4e
[1.ee
4ee]
==
*-
